!!!OTL: 530a. Den Leuten zum Trutz.
!!!ODT: 1828
!!!ARE: Europa, Mitteleuropa, Deutschland, Franken ?
!!!SCT: E0530
!!!TXL: @@DE
!!!YEM: Copyright 1995, estate of Helmut Schaffrath.
**kern	**text
*ICvox	*
*M3/4	*
*k[f#]	*
*G:	*
!LO:TX:a:t=Ruhig.	!
!LO:TX:a:t=Mel. 1828.	!
{4d	Komm
=1	=1
8gL	ʒu
8aJ	.
4b	mir
8aL	in
8gJ	.
=2	=2
8aL	Gar-
8f#J	.
4d}	-ten,
{4dd	komm
=3	=3
8ddL	ʒu
8ccJ	.
4b	mir
8aL	ins
8gJ	.
=4	=4
2a}	Gras;
{8aL	ſprich
8bJ	.
=5	=5
4cc	aus
4cc	dei-
8bL	-nen
8aJ	.
=6	=6
8gL	Jam-
8f#J	.
4g}	-mer,
{4cc	es
=7	=7
8bL	bringt
8aJ	.
4g	mir
4f#	nicht
=8	=8
2g}	Schmerʒ.
==	==
!!!AGN: Liebes - Lied
!!!ONB: ESAC (Essen Associative Code) Database: ERK1
!!!AMT: simple triple
!!!AIN: vox
!!!EED: Helmut Schaffrath
!!!EEV: 1.0
!!!GTL: Liebeslieder [Neuere (aus dem 18. bis 19. Jahrh.) - Liebeslust]
!!!URL-scan: https://rosdok.uni-rostock.de/mcrviewer/recordIdentifier/rosdok_ppn745177662/iview2/phys_0359.iview2?x=-128.77276441889308&y=1799.3431881098077&scale=0.5870222003877485&rotation=0&layout=singlePageLayout
!!!ENC: Anna Maria Matuszewska
!!!EEV: 2024/10/12
*-	*-
